!!! OTL: Berkowitz424
!!! Chapter: 1
!!! Section: IV
!!! Page: 105
!!! Mode: 
!!! Encoder: DJB
**kern
*staff1
*I"Piano
=1-
*clefG2
*k[b-e-a-d-g-]
*b-:
*M3/4
4B-/
4.an/
8b-\
=2
2.g-/
=3
4B-/
4.an/
8b-\
=4
2.e-/
=5
4An/
4g-/
4e-/
=6
4c/
4d-/
4B-/
=7
4G-/
4.f/
8e-/
=8
2.c/
=9
4B-/
4.an/
8b-\
=10
2.g-/
=11
4A-/
4.gn/
8a-/
=12
2.f/
=13
!!linebreak:original
4g-/
4An/
4e-/
=14
4f/
4G-/
4e-/
=15
4.d-/
8e-/
4c/
=16
4B-/
4.an/
8b-\
=17
4f/
4d-/
4F/
=18
2.B-/
=19
2.B-/
=20
4B-/
2r
==
*-
